48x48/apps/gba.svg

<svg viewBox="0 0 48 48"><defs><linearGradient id="linearGradient3764" x1="1" x2="47" gradientUnits="userSpaceOnUse" gradientTransform="matrix(0,-1,1,0,-1.5e-6,47.999998)"><stop stop-color="#3d3d3d" stop-opacity="1"/><stop offset="1" stop-color="#474747" stop-opacity="1"/></linearGradient><clipPath id="clipPath-666848582"><g transform="translate(0,-1004.3622)"><path d="m -24 13 c 0 1.105 -0.672 2 -1.5 2 -0.828 0 -1.5 -0.895 -1.5 -2 0 -1.105 0.672 -2 1.5 -2 0.828 0 1.5 0.895 1.5 2 z" transform="matrix(15.333333,0,0,11.5,414.99999,878.8622)" fill="#1890d0"/></g></clipPath><clipPath id="clipPath-675088828"><g transform="translate(0,-1004.3622)"><path d="m -24 13 c 0 1.105 -0.672 2 -1.5 2 -0.828 0 -1.5 -0.895 -1.5 -2 0 -1.105 0.672 -2 1.5 -2 0.828 0 1.5 0.895 1.5 2 z" transform="matrix(15.333333,0,0,11.5,414.99999,878.8622)" fill="#1890d0"/></g></clipPath></defs><g><path d="m 36.31 5 c 5.859 4.062 9.688 10.831 9.688 18.5 c 0 12.426 -10.07 22.5 -22.5 22.5 c -7.669 0 -14.438 -3.828 -18.5 -9.688 c 1.037 1.822 2.306 3.499 3.781 4.969 c 4.085 3.712 9.514 5.969 15.469 5.969 c 12.703 0 23 -10.298 23 -23 c 0 -5.954 -2.256 -11.384 -5.969 -15.469 c -1.469 -1.475 -3.147 -2.744 -4.969 -3.781 z m 4.969 3.781 c 3.854 4.113 6.219 9.637 6.219 15.719 c 0 12.703 -10.297 23 -23 23 c -6.081 0 -11.606 -2.364 -15.719 -6.219 c 4.16 4.144 9.883 6.719 16.219 6.719 c 12.703 0 23 -10.298 23 -23 c 0 -6.335 -2.575 -12.06 -6.719 -16.219 z" opacity="0.05"/><path d="m 41.28 8.781 c 3.712 4.085 5.969 9.514 5.969 15.469 c 0 12.703 -10.297 23 -23 23 c -5.954 0 -11.384 -2.256 -15.469 -5.969 c 4.113 3.854 9.637 6.219 15.719 6.219 c 12.703 0 23 -10.298 23 -23 c 0 -6.081 -2.364 -11.606 -6.219 -15.719 z" opacity="0.1"/><path d="m 31.25 2.375 c 8.615 3.154 14.75 11.417 14.75 21.13 c 0 12.426 -10.07 22.5 -22.5 22.5 c -9.708 0 -17.971 -6.135 -21.12 -14.75 a 23 23 0 0 0 44.875 -7 a 23 23 0 0 0 -16 -21.875 z" opacity="0.2"/></g><g><path d="m 24 1 c 12.703 0 23 10.297 23 23 c 0 12.703 -10.297 23 -23 23 -12.703 0 -23 -10.297 -23 -23 0 -12.703 10.297 -23 23 -23 z" fill="url(#linearGradient3764)" fill-opacity="1"/></g><g/><g><g clip-path="url(#clipPath-666848582)"><g transform="translate(1,1)"><g opacity="0.1"><!-- color: #474747 --><g><path d="m 18.17 12 l 11.668 0 c 0.641 0 1.164 0.523 1.164 1.168 l 0 21.668 c 0 0.641 -0.523 1.164 -1.164 1.164 l -11.668 0 c -0.648 0 -1.168 -0.523 -1.168 -1.164 l 0 -21.668 c 0 -0.645 0.52 -1.168 1.168 -1.168 m 0 0" fill="#000" stroke="none" fill-rule="nonzero" fill-opacity="1"/><path d="m 17.355 23 l 13.289 0 c 0.195 0 0.355 0.16 0.355 0.355 l 0 1.289 c 0 0.195 -0.16 0.352 -0.355 0.352 l -13.289 0 c -0.195 0 -0.355 -0.156 -0.355 -0.352 l 0 -1.289 c 0 -0.195 0.16 -0.355 0.355 -0.355 m 0 0" fill="#000" stroke="none" fill-rule="nonzero" fill-opacity="0.251"/><path d="m 20 28 l 0.996 0 l 0 3 l -0.996 0 m 0 -3" fill="#000" stroke="none" fill-rule="nonzero" fill-opacity="0.902"/><path d="m 19 29 l 3 0 l 0 0.996 l -3 0 m 0 -0.996" fill="#000" stroke="none" fill-rule="nonzero" fill-opacity="0.902"/><path d="m 28 28.5 c 0 0.277 -0.223 0.5 -0.5 0.5 c -0.277 0 -0.5 -0.223 -0.5 -0.5 c 0 -0.277 0.223 -0.5 0.5 -0.5 c 0.277 0 0.5 0.223 0.5 0.5 m 0 0" fill="#000" stroke="none" fill-rule="nonzero" fill-opacity="0.902"/><path d="m 29 29.5 c 0 0.277 -0.223 0.5 -0.5 0.5 c -0.277 0 -0.5 -0.223 -0.5 -0.5 c 0 -0.277 0.223 -0.5 0.5 -0.5 c 0.277 0 0.5 0.223 0.5 0.5 m 0 0" fill="#000" stroke="none" fill-rule="nonzero" fill-opacity="0.902"/><path d="m 27 29.5 c 0 0.277 -0.223 0.5 -0.5 0.5 c -0.277 0 -0.5 -0.223 -0.5 -0.5 c 0 -0.277 0.223 -0.5 0.5 -0.5 c 0.277 0 0.5 0.223 0.5 0.5 m 0 0" fill="#000" stroke="none" fill-rule="nonzero" fill-opacity="0.902"/><path d="m 28 30.5 c 0 0.277 -0.223 0.5 -0.5 0.5 c -0.277 0 -0.5 -0.223 -0.5 -0.5 c 0 -0.277 0.223 -0.5 0.5 -0.5 c 0.277 0 0.5 0.223 0.5 0.5 m 0 0" fill="#000" stroke="none" fill-rule="nonzero" fill-opacity="0.902"/><path d="m 23 26 l 1.996 0 l 0 1 l -1.996 0 m 0 -1" fill="#000" stroke="none" fill-rule="nonzero" fill-opacity="0.902"/><path d="m 19 14 l 10 0 l 0 7 l -10 0 m 0 -7" fill="#000" stroke="none" fill-rule="nonzero" fill-opacity="0.902"/><path d="m 26 33.563 c 0 0.277 -0.223 0.5 -0.5 0.5 c -0.277 0 -0.5 -0.223 -0.5 -0.5 c 0 -0.277 0.223 -0.5 0.5 -0.5 c 0.277 0 0.5 0.223 0.5 0.5 m 0 0" fill="#000" stroke="none" fill-rule="nonzero" fill-opacity="0.902"/><path d="m 23 33.563 c 0 0.277 -0.223 0.5 -0.5 0.5 c -0.277 0 -0.5 -0.223 -0.5 -0.5 c 0 -0.277 0.223 -0.5 0.5 -0.5 c 0.277 0 0.5 0.223 0.5 0.5 m 0 0" fill="#000" stroke="none" fill-rule="nonzero" fill-opacity="0.902"/></g></g></g></g></g><g><g clip-path="url(#clipPath-675088828)"><!-- color: #474747 --><g><path d="m 18.17 12 l 11.668 0 c 0.641 0 1.164 0.523 1.164 1.168 l 0 21.668 c 0 0.641 -0.523 1.164 -1.164 1.164 l -11.668 0 c -0.648 0 -1.168 -0.523 -1.168 -1.164 l 0 -21.668 c 0 -0.645 0.52 -1.168 1.168 -1.168 m 0 0" fill="#955bc1" stroke="none" fill-rule="nonzero" fill-opacity="1"/><path d="m 17.355 23 l 13.289 0 c 0.195 0 0.355 0.16 0.355 0.355 l 0 1.289 c 0 0.195 -0.16 0.352 -0.355 0.352 l -13.289 0 c -0.195 0 -0.355 -0.156 -0.355 -0.352 l 0 -1.289 c 0 -0.195 0.16 -0.355 0.355 -0.355 m 0 0" fill="#fff" stroke="none" fill-rule="nonzero" fill-opacity="0.251"/><path d="m 20 28 l 0.996 0 l 0 3 l -0.996 0 m 0 -3" fill="#f9f9f9" stroke="none" fill-rule="nonzero" fill-opacity="0.902"/><path d="m 19 29 l 3 0 l 0 0.996 l -3 0 m 0 -0.996" fill="#f9f9f9" stroke="none" fill-rule="nonzero" fill-opacity="0.902"/><path d="m 28 28.5 c 0 0.277 -0.223 0.5 -0.5 0.5 c -0.277 0 -0.5 -0.223 -0.5 -0.5 c 0 -0.277 0.223 -0.5 0.5 -0.5 c 0.277 0 0.5 0.223 0.5 0.5 m 0 0" fill="#f9f9f9" stroke="none" fill-rule="nonzero" fill-opacity="0.902"/><path d="m 29 29.5 c 0 0.277 -0.223 0.5 -0.5 0.5 c -0.277 0 -0.5 -0.223 -0.5 -0.5 c 0 -0.277 0.223 -0.5 0.5 -0.5 c 0.277 0 0.5 0.223 0.5 0.5 m 0 0" fill="#f9f9f9" stroke="none" fill-rule="nonzero" fill-opacity="0.902"/><path d="m 27 29.5 c 0 0.277 -0.223 0.5 -0.5 0.5 c -0.277 0 -0.5 -0.223 -0.5 -0.5 c 0 -0.277 0.223 -0.5 0.5 -0.5 c 0.277 0 0.5 0.223 0.5 0.5 m 0 0" fill="#f9f9f9" stroke="none" fill-rule="nonzero" fill-opacity="0.902"/><path d="m 28 30.5 c 0 0.277 -0.223 0.5 -0.5 0.5 c -0.277 0 -0.5 -0.223 -0.5 -0.5 c 0 -0.277 0.223 -0.5 0.5 -0.5 c 0.277 0 0.5 0.223 0.5 0.5 m 0 0" fill="#f9f9f9" stroke="none" fill-rule="nonzero" fill-opacity="0.902"/><path d="m 23 26 l 1.996 0 l 0 1 l -1.996 0 m 0 -1" fill="#f9f9f9" stroke="none" fill-rule="nonzero" fill-opacity="0.902"/><path d="m 19 14 l 10 0 l 0 7 l -10 0 m 0 -7" fill="#f9f9f9" stroke="none" fill-rule="nonzero" fill-opacity="0.902"/><path d="m 26 33.563 c 0 0.277 -0.223 0.5 -0.5 0.5 c -0.277 0 -0.5 -0.223 -0.5 -0.5 c 0 -0.277 0.223 -0.5 0.5 -0.5 c 0.277 0 0.5 0.223 0.5 0.5 m 0 0" fill="#f9f9f9" stroke="none" fill-rule="nonzero" fill-opacity="0.902"/><path d="m 23 33.563 c 0 0.277 -0.223 0.5 -0.5 0.5 c -0.277 0 -0.5 -0.223 -0.5 -0.5 c 0 -0.277 0.223 -0.5 0.5 -0.5 c 0.277 0 0.5 0.223 0.5 0.5 m 0 0" fill="#f9f9f9" stroke="none" fill-rule="nonzero" fill-opacity="0.902"/></g></g></g><g><path d="m 40.03 7.531 c 3.712 4.084 5.969 9.514 5.969 15.469 0 12.703 -10.297 23 -23 23 c -5.954 0 -11.384 -2.256 -15.469 -5.969 4.178 4.291 10.01 6.969 16.469 6.969 c 12.703 0 23 -10.298 23 -23 0 -6.462 -2.677 -12.291 -6.969 -16.469 z" opacity="0.1"/></g></svg>

<?xml version="1.0" encoding="UTF-8" standalone="no"?>
<svg
   xmlns:dc="http://purl.org/dc/elements/1.1/"
   xmlns:cc="http://creativecommons.org/ns#"
   xmlns:rdf="http://www.w3.org/1999/02/22-rdf-syntax-ns#"
   xmlns:svg="http://www.w3.org/2000/svg"
   xmlns="http://www.w3.org/2000/svg"
   xmlns:sodipodi="http://sodipodi.sourceforge.net/DTD/sodipodi-0.dtd"
   xmlns:inkscape="http://www.inkscape.org/namespaces/inkscape"
   viewBox="0 0 48 48"
   id="svg2"
   version="1.1"
   inkscape:version="0.48.4 r9939"
   width="100%"
   height="100%"
   sodipodi:docname="gba.svg">
  <metadata
     id="metadata105">
    <rdf:RDF>
      <cc:Work
         rdf:about="">
        <dc:format>image/svg+xml</dc:format>
        <dc:type
           rdf:resource="http://purl.org/dc/dcmitype/StillImage" />
      </cc:Work>
    </rdf:RDF>
  </metadata>
  <sodipodi:namedview
     pagecolor="#ffffff"
     bordercolor="#666666"
     borderopacity="1"
     objecttolerance="10"
     gridtolerance="10"
     guidetolerance="10"
     inkscape:pageopacity="0"
     inkscape:pageshadow="2"
     inkscape:window-width="1375"
     inkscape:window-height="876"
     id="namedview103"
     showgrid="false"
     inkscape:zoom="4.9166667"
     inkscape:cx="-0.20338983"
     inkscape:cy="24"
     inkscape:window-x="65"
     inkscape:window-y="24"
     inkscape:window-maximized="1"
     inkscape:current-layer="svg2" />
  <defs
     id="defs4">
    <linearGradient
       id="linearGradient3764"
       x1="1"
       x2="47"
       gradientUnits="userSpaceOnUse"
       gradientTransform="matrix(0,-1,1,0,-1.5e-6,47.999998)">
      <stop
         stop-color="#3d3d3d"
         stop-opacity="1"
         id="stop7" />
      <stop
         offset="1"
         stop-color="#474747"
         stop-opacity="1"
         id="stop9" />
    </linearGradient>
    <clipPath
       id="clipPath-666848582">
      <g
         transform="translate(0,-1004.3622)"
         id="g12">
        <path
           d="m -24 13 c 0 1.105 -0.672 2 -1.5 2 -0.828 0 -1.5 -0.895 -1.5 -2 0 -1.105 0.672 -2 1.5 -2 0.828 0 1.5 0.895 1.5 2 z"
           transform="matrix(15.333333,0,0,11.5,414.99999,878.8622)"
           fill="#1890d0"
           id="path14" />
      </g>
    </clipPath>
    <clipPath
       id="clipPath-675088828">
      <g
         transform="translate(0,-1004.3622)"
         id="g17">
        <path
           d="m -24 13 c 0 1.105 -0.672 2 -1.5 2 -0.828 0 -1.5 -0.895 -1.5 -2 0 -1.105 0.672 -2 1.5 -2 0.828 0 1.5 0.895 1.5 2 z"
           transform="matrix(15.333333,0,0,11.5,414.99999,878.8622)"
           fill="#1890d0"
           id="path19" />
      </g>
    </clipPath>
    <linearGradient
       id="linearGradient3764-4"
       x1="1"
       x2="47"
       gradientUnits="userSpaceOnUse"
       gradientTransform="matrix(0,-1,1,0,-1.5e-6,47.999998)">
      <stop
         stop-color="#b5945b"
         stop-opacity="1"
         id="stop7-7" />
      <stop
         offset="1"
         stop-color="#bb9e69"
         stop-opacity="1"
         id="stop9-5" />
    </linearGradient>
    <clipPath
       id="clipPath-899834956">
      <g
         transform="translate(0,-1004.3622)"
         id="g12-6">
        <path
           d="m -24 13 c 0 1.105 -0.672 2 -1.5 2 -0.828 0 -1.5 -0.895 -1.5 -2 0 -1.105 0.672 -2 1.5 -2 0.828 0 1.5 0.895 1.5 2 z"
           transform="matrix(15.333333,0,0,11.5,414.99999,878.8622)"
           fill="#1890d0"
           id="path14-9" />
      </g>
    </clipPath>
    <clipPath
       id="clipPath-909443126">
      <g
         transform="translate(0,-1004.3622)"
         id="g17-8">
        <path
           d="m -24 13 c 0 1.105 -0.672 2 -1.5 2 -0.828 0 -1.5 -0.895 -1.5 -2 0 -1.105 0.672 -2 1.5 -2 0.828 0 1.5 0.895 1.5 2 z"
           transform="matrix(15.333333,0,0,11.5,414.99999,878.8622)"
           fill="#1890d0"
           id="path19-9" />
      </g>
    </clipPath>
    <clipPath
       id="clipPath-909443126-7">
      <g
         transform="translate(0,-1004.3622)"
         id="g17-2">
        <path
           style="fill:#1890d0"
           inkscape:connector-curvature="0"
           d="m -24,13 c 0,1.105 -0.672,2 -1.5,2 -0.828,0 -1.5,-0.895 -1.5,-2 0,-1.105 0.672,-2 1.5,-2 0.828,0 1.5,0.895 1.5,2 z"
           transform="matrix(15.333333,0,0,11.5,414.99999,878.8622)"
           id="path19-3" />
      </g>
    </clipPath>
    <linearGradient
       id="linearGradient3759">
      <stop
         id="stop3761"
         offset="0"
         style="stop-color:#a75e15;stop-opacity:1;" />
      <stop
         id="stop3763"
         offset="1"
         style="stop-color:#ffffff;stop-opacity:0;" />
    </linearGradient>
    <linearGradient
       id="linearGradient3777">
      <stop
         id="stop3779"
         offset="0"
         style="stop-color:#e0dd00;stop-opacity:1;" />
      <stop
         id="stop3781"
         offset="1"
         style="stop-color:#000000;stop-opacity:0;" />
    </linearGradient>
    <clipPath
       id="clipPath-675088828-7">
      <g
         transform="translate(0,-1004.3622)"
         id="g17-26">
        <path
           style="fill:#1890d0"
           inkscape:connector-curvature="0"
           d="m -24,13 c 0,1.105 -0.672,2 -1.5,2 -0.828,0 -1.5,-0.895 -1.5,-2 0,-1.105 0.672,-2 1.5,-2 0.828,0 1.5,0.895 1.5,2 z"
           transform="matrix(15.333333,0,0,11.5,414.99999,878.8622)"
           id="path19-7" />
      </g>
    </clipPath>
  </defs>
  <g
     id="g33" />
  <g
     id="g3129">
    <g
       inkscape:label="shadows"
       id="layer2">
      <rect
         ry="13.03658"
         rx="13.03658"
         y="1"
         x="1"
         height="46"
         width="46"
         id="rect3007"
         style="opacity:0.1;fill:#000000;fill-opacity:1;fill-rule:nonzero;stroke:none" />
      <rect
         style="opacity:0.1;fill:#000000;fill-opacity:1;fill-rule:nonzero;stroke:none"
         id="rect3011"
         width="47"
         height="47"
         x="0.5"
         y="0.5"
         rx="13.319984"
         ry="13.319984" />
      <rect
         style="opacity:0.1;fill:#000000;fill-opacity:1;fill-rule:nonzero;stroke:none"
         id="rect3013"
         width="46.5"
         height="46.5"
         x="0.75"
         y="0.75"
         rx="13.178282"
         ry="13.178282" />
    </g>
    <g
       style="display:inline"
       inkscape:label="background-color"
       id="layer1">
      <rect
         transform="matrix(0,-1,1,0,0,0)"
         ry="12.753176"
         rx="12.753176"
         y="1.5"
         x="-46.5"
         height="45"
         width="45"
         id="rect2988"
         style="fill:#333333;fill-opacity:1;fill-rule:nonzero;stroke:none" />
    </g>
  </g>
  <g
     transform="translate(-10e-4,0)"
     id="g69-8">
    <g
       clip-path="url(#clipPath-675088828-7)"
       id="g71-4">
      <!-- color: #474747 -->
      <g
         id="g73-6">
        <path
           style="fill:#955bc1;fill-opacity:1;fill-rule:nonzero;stroke:none"
           inkscape:connector-curvature="0"
           d="m 18.17,12 11.668,0 c 0.641,0 1.164,0.523 1.164,1.168 l 0,21.668 C 31.002,35.477 30.479,36 29.838,36 L 18.17,36 c -0.648,0 -1.168,-0.523 -1.168,-1.164 l 0,-21.668 C 17.002,12.523 17.522,12 18.17,12 m 0,0"
           id="path75-5" />
        <path
           style="fill:#ffffff;fill-opacity:0.25100002;fill-rule:nonzero;stroke:none"
           inkscape:connector-curvature="0"
           d="m 17.355,23 13.289,0 c 0.195,0 0.355,0.16 0.355,0.355 l 0,1.289 c 0,0.195 -0.16,0.352 -0.355,0.352 l -13.289,0 C 17.16,24.996 17,24.84 17,24.644 l 0,-1.289 C 17,23.16 17.16,23 17.355,23 m 0,0"
           id="path77-4" />
        <path
           style="fill:#f9f9f9;fill-opacity:0.9020004;fill-rule:nonzero;stroke:none"
           inkscape:connector-curvature="0"
           d="m 20,28 0.996,0 0,3 L 20,31 m 0,-3"
           id="path79-5" />
        <path
           style="fill:#f9f9f9;fill-opacity:0.9020004;fill-rule:nonzero;stroke:none"
           inkscape:connector-curvature="0"
           d="m 19,29 3,0 0,0.996 -3,0 M 19,29"
           id="path81-4" />
        <path
           style="fill:#f9f9f9;fill-opacity:0.9020004;fill-rule:nonzero;stroke:none"
           inkscape:connector-curvature="0"
           d="M 28,28.5 C 28,28.777 27.777,29 27.5,29 27.223,29 27,28.777 27,28.5 27,28.223 27.223,28 27.5,28 c 0.277,0 0.5,0.223 0.5,0.5 m 0,0"
           id="path83-6" />
        <path
           style="fill:#f9f9f9;fill-opacity:0.9020004;fill-rule:nonzero;stroke:none"
           inkscape:connector-curvature="0"
           d="M 29,29.5 C 29,29.777 28.777,30 28.5,30 28.223,30 28,29.777 28,29.5 28,29.223 28.223,29 28.5,29 c 0.277,0 0.5,0.223 0.5,0.5 m 0,0"
           id="path85-1" />
        <path
           style="fill:#f9f9f9;fill-opacity:0.9020004;fill-rule:nonzero;stroke:none"
           inkscape:connector-curvature="0"
           d="M 27,29.5 C 27,29.777 26.777,30 26.5,30 26.223,30 26,29.777 26,29.5 26,29.223 26.223,29 26.5,29 c 0.277,0 0.5,0.223 0.5,0.5 m 0,0"
           id="path87-6" />
        <path
           style="fill:#f9f9f9;fill-opacity:0.9020004;fill-rule:nonzero;stroke:none"
           inkscape:connector-curvature="0"
           d="M 28,30.5 C 28,30.777 27.777,31 27.5,31 27.223,31 27,30.777 27,30.5 27,30.223 27.223,30 27.5,30 c 0.277,0 0.5,0.223 0.5,0.5 m 0,0"
           id="path89-6" />
        <path
           style="fill:#f9f9f9;fill-opacity:0.9020004;fill-rule:nonzero;stroke:none"
           inkscape:connector-curvature="0"
           d="m 23,26 1.996,0 0,1 L 23,27 m 0,-1"
           id="path91-7" />
        <path
           style="fill:#f9f9f9;fill-opacity:0.9020004;fill-rule:nonzero;stroke:none"
           inkscape:connector-curvature="0"
           d="m 19,14 10,0 0,7 -10,0 m 0,-7"
           id="path93-3" />
        <path
           style="fill:#f9f9f9;fill-opacity:0.9020004;fill-rule:nonzero;stroke:none"
           inkscape:connector-curvature="0"
           d="m 26,33.563 c 0,0.277 -0.223,0.5 -0.5,0.5 -0.277,0 -0.5,-0.223 -0.5,-0.5 0,-0.277 0.223,-0.5 0.5,-0.5 0.277,0 0.5,0.223 0.5,0.5 m 0,0"
           id="path95-2" />
        <path
           style="fill:#f9f9f9;fill-opacity:0.9020004;fill-rule:nonzero;stroke:none"
           inkscape:connector-curvature="0"
           d="m 23,33.563 c 0,0.277 -0.223,0.5 -0.5,0.5 -0.277,0 -0.5,-0.223 -0.5,-0.5 0,-0.277 0.223,-0.5 0.5,-0.5 0.277,0 0.5,0.223 0.5,0.5 m 0,0"
           id="path97-4" />
      </g>
    </g>
  </g>
</svg>
